X:1
T:Practica 3
M:4/4
L: 1/4
Q: 1/4=60
V: Der
%%MIDI program 0
K:C clef=treble
	(cdec) | (cdec) | (efg2) | (efg2) | (g/2a/2g/2f/2 ec) | 
	(g/2a/2g/2f/2 ec) | cGc2 | cGc2 | z4|
V: Izq
K:C clef=bass
%%MIDI program 1
  z4 | (C,D,E,C,) | (C,D,E,C,) | (E,F,G,2) | (E,F,G,2) |   
   (G,/2A,/2G,/2F,/2 E,C,) |(G,/2A,/2G,/2F,/2 E,C,) | C,G,,C,2 | C,G,,C,2 |